X: 11412
T: East Village Days
R: slip jig
M: 9/8
K: Gmajor
BcB G~E3~G2|BcB GA2dB2|GcB G~E3~G2|BcB G~A3AG:|
FE4GFG E|BA2GAB dB2|GE4GFG2|A BdeB2GGF|
DE4GFG E|BA2GAB dBg|fe3edB de|A3G~B3AB d|

